assets/themes/natuurpunt/urinal.svg

<?xml version="1.0" encoding="UTF-8" standalone="no"?>
<svg
   width="157.30078"
   height="203.94189"
   viewBox="0 0 157.30078 203.94189"
   version="1.1"
   id="svg904"
   sodipodi:docname="urinal.svg"
   inkscape:version="1.1.1 (1:1.1+202109281949+c3084ef5ed)"
   xmlns:inkscape="http://www.inkscape.org/namespaces/inkscape"
   xmlns:sodipodi="http://sodipodi.sourceforge.net/DTD/sodipodi-0.dtd"
   xmlns="http://www.w3.org/2000/svg"
   xmlns:svg="http://www.w3.org/2000/svg">
  <defs
     id="defs908" />
  <sodipodi:namedview
     id="namedview906"
     pagecolor="#505050"
     bordercolor="#eeeeee"
     borderopacity="1"
     inkscape:pageshadow="0"
     inkscape:pageopacity="0"
     inkscape:pagecheckerboard="0"
     showgrid="false"
     inkscape:zoom="4.1922078"
     inkscape:cx="-17.413259"
     inkscape:cy="77.644052"
     inkscape:current-layer="svg904" />
  <g
     id="surface1"
     transform="translate(-115.5,71.941895)">
    <path
       style="fill:#ffffff;fill-opacity:1;fill-rule:nonzero;stroke:none"
       d="m 258.5,-31.128906 c -3.19141,-22.660156 -14.96094,-40.921875 -40.03906,-40.8125 h -48.73047 c -24.96875,0 -36.85156,18.152344 -39.92969,40.8125 L 115.5,88 c 0.42188,24.42578 20.34375,44.00391 44.76953,44 h 67.76172 c 24.42578,0.004 44.34766,-19.57422 44.76953,-44 z M 218.46094,103.73047 H 169.73047 C 151.92969,103.73047 137.5,89.300781 137.5,71.5 l 10.33984,-85.46875 c 2.19922,-16.28125 11,-29.480469 28.71094,-29.371094 h 35.08984 c 18.03907,0 26.50782,13.089844 28.82032,29.371094 L 250.69141,71.5 c 0,17.800781 -14.42969,32.23047 -32.23047,32.23047 z m 0,0"
       id="path901" />
  </g>
</svg>

<?xml version="1.0" encoding="UTF-8" standalone="yes"?>
<svg xmlns="http://www.w3.org/2000/svg" xmlns:xlink="http://www.w3.org/1999/xlink" width="385px" height="11px" viewBox="0 0 385 11" version="1.1">
  <g id="surface1">
    <path style=" stroke:none;fill-rule:nonzero;fill:rgb(100%,100%,100%);fill-opacity:1;" d="M 258.5 -31.128906 C 255.308594 -53.789062 243.539062 -72.050781 218.460938 -71.941406 L 169.730469 -71.941406 C 144.761719 -71.941406 132.878906 -53.789062 129.800781 -31.128906 L 115.5 88 C 115.921875 112.425781 135.84375 132.003906 160.269531 132 L 228.03125 132 C 252.457031 132.003906 272.378906 112.425781 272.800781 88 Z M 218.460938 103.730469 L 169.730469 103.730469 C 151.929688 103.730469 137.5 89.300781 137.5 71.5 L 147.839844 -13.96875 C 150.039062 -30.25 158.839844 -43.449219 176.550781 -43.339844 L 211.640625 -43.339844 C 229.679688 -43.339844 238.148438 -30.25 240.460938 -13.96875 L 250.691406 71.5 C 250.691406 89.300781 236.261719 103.730469 218.460938 103.730469 Z M 218.460938 103.730469 "/>
  </g>
</svg>
